X: 28552
T: Murdo Of The Moon
R: waltz
M: 3/4
K: Gmajor
G,6|G,4 E2|D4 B,2|D G,5|G3 F E2|D4 G,2|1 B,4 E2|D B,5:|2 B,4 D2|B, A,5||
|:A,6|A,3 B, D2|E4 D2|B, D5|G3 F E2|D4 G,2|1 B,4 E2|D B,5:|2 B,4 D2|B, A,5||

